!!!COM: Beethoven, Ludwig van
!!!CDT: 1770///-1827///
!!!OTL: Piano Sonata no. 14 in C-sharp minor
!!!OTP: moonlight
!!!ODT: 1801///
!!!OPS: 27
!!!ONM: 2
!!!OMV: 1
!!!OMD: Adagio sostenuto
!!!ODE: Gr&auml;fin Giulietta Guicciardi
**kern	**dynam	**kern	**dynam
*staff2	*	*staff1	*staff1
*Ipiano	*	*Ipiano	*Ipiano
*clefF4	*	*clefG2	*clefG2
*k[f#c#g#d#]	*	*k[f#c#g#d#]	*k[f#c#g#d#]
*c#:	*	*c#:	*c#:
*M2/2	*	*M2/2	*M2/2
*MM54	*	*MM54	*MM54
=1-	=1-	=1-	=1-
!!LO:TX:a:t=si deve suonare tutto questo pezzo delicatissimamente e senza sordini
1CC# 1C#	.	12G#/L	pp
.	.	12c#/	.
.	.	12e/J	.
.	.	12G#/L	.
.	.	12c#/	.
.	.	12e/J	.
.	.	12G#/L	.
.	.	12c#/	.
.	.	12e/J	.
.	.	12G#/L	.
.	.	12c#/	.
.	.	12e/J	.
*Xtuplet	*	*Xtuplet	*
=2	=2	=2	=2
1BBB 1BB	.	12G#/L	.
.	.	12c#/	.
.	.	12e/J	.
.	.	12G#/L	.
.	.	12c#/	.
.	.	12e/J	.
.	.	12G#/L	.
.	.	12c#/	.
.	.	12e/J	.
.	.	12G#/L	.
.	.	12c#/	.
.	.	12e/J	.
=3	=3	=3	=3
2AAA/ 2AA/	.	12A/L	.
.	.	12c#/	.
.	.	12e/J	.
.	.	12A/L	.
.	.	12c#/	.
.	.	12e/J	.
2FFF#/ 2FF#/	.	12A/L	.
.	.	12dn/	.
.	.	12f#/J	.
.	.	12A/L	.
.	.	12d/	.
.	.	12f#/J	.
=4	=4	=4	=4
2GGG#/ 2GG#/	.	12G#/L	.
.	.	12B#/	.
.	.	12f#/J	.
.	.	12G#/L	.
.	.	12c#/	.
.	.	12e/J	.
2GGG#/ 2GG#/	.	12G#/L	.
.	.	12c#/	.
.	.	12d#X/J	.
.	.	12F#/Lj	.
.	.	12B#/	.
.	.	12d#/J	.
=5	=5	=5	=5
*	*	*^	*
1CC# 1GG# 1C#	.	2r	12Ej\L	.
.	.	.	12G#j\	.
.	.	.	12c#j\J	.
.	.	.	12G#j\L	.
.	.	.	12c#\	.
.	.	.	12e\J	.
.	.	4r	12G#\L	.
.	.	.	12c#\	.
.	.	.	12e\J	.
!	!	!	!	!LO:DY:a
.	.	8.g#/L	12G#\L	pp
.	.	.	12c#\	.
.	.	.	12e\J	.
.	.	16g#/Jk	.	.
=6	=6	=6	=6	=6
1BBB# 1GG# 1BB#	.	2.g#/	12G#\L	.
.	.	.	12d#\	.
.	.	.	12f#\J	.
.	.	.	12G#\L	.
.	.	.	12d#\	.
.	.	.	12f#\J	.
.	.	.	12G#\L	.
.	.	.	12d#\	.
.	.	.	12f#\J	.
.	.	8.g#/L	12G#\L	.
.	.	.	12d#\	.
.	.	.	12f#\J	.
.	.	16g#/Jk	.	.
=7	=7	=7	=7	=7
(2CC#/ 2C#/	.	(2g#/	12G#\L	.
.	.	.	12c#\	.
.	.	.	12e\J	.
.	.	.	12G#\L	.
.	.	.	12c#\	.
.	.	.	12e\J	.
2FFF#/ 2FF#/)	.	2a/	12A\L	.
.	.	.	12c#\	.
.	.	.	12f#\J	.
.	.	.	12A\L	.
.	.	.	12c#\	.
.	.	.	12f#\J	.
=8	=8	=8	=8	=8
2BBB/ 2BB/	.	2g#/	12G#\L	.
.	.	.	12B\	.
.	.	.	12e\J	.
.	.	.	12G#\L	.
.	.	.	12B\	.
.	.	.	12e\J	.
2BBB/ 2BB/	.	4f#/	12A\L	.
.	.	.	12B\	.
.	.	.	12d#\J	.
.	.	4b/	12A\L	.
.	.	.	12B\	.
.	.	.	12d#\J	.
=9	=9	=9	=9	=9
1EE 1E	.	4e/)	12G#\L	.
.	.	.	12B\	.
.	.	.	12e\J	.
.	.	4r	12G#\L	.
.	.	.	12B\	.
.	.	.	12e\J	.
.	.	2r	12G#\L	.
.	.	.	12B\	.
.	.	.	12e\J	.
.	.	.	12G#\L	.
.	.	.	12B\	.
.	.	.	12e\J	.
=10	=10	=10	=10	=10
1EE 1E	.	2r	12Gn\L	.
.	.	.	12B\	.
.	.	.	12e\J	.
.	.	.	12G\L	.
.	.	.	12B\	.
.	.	.	12e\J	.
.	.	4r	12G\L	.
.	.	.	12B\	.
.	.	.	12e\J	.
.	.	8.gn/L	12G\L	.
.	.	.	12B\	.
.	.	.	12e\J	.
.	.	16g/Jk	.	.
=11	=11	=11	=11	=11
1DDn 1Dn	.	2.gn/	12Gn\L	.
.	.	.	12B\	.
.	.	.	12fn\J	.
.	.	.	12G\L	.
.	.	.	12B\	.
.	.	.	12f\J	.
.	.	.	12G\L	.
.	.	.	12B\	.
.	.	.	12f\J	.
.	.	8.g/L	12G\L	.
.	.	.	12B\	.
.	.	.	12f\J	.
.	.	16g/Jk	.	.
=12	=12	=12	=12	=12
(4CCn/ 4Cn/	.	(2.gn/	12Gn\L	.
.	.	.	12cn\	.
.	.	.	12e\J	.
4BBB/ 4BB/	.	.	12G\L	.
.	.	.	12c\	.
.	.	.	12e\J	.
2AAA#/) 2AA#/	.	.	12G\L	.
.	.	.	12c#\	.
.	.	.	12e\J	.
.	.	4f#X/)	12F#X\L	.
.	.	.	12c#\	.
.	.	.	12e\J	.
*	*	*v	*v	*
=13	=13	=13	=13
*^	*	*	*
!	!	!	!LO:S:a	!
12F#/L	(2BBB\ 2BB\	.	(2f#/	.
12B/	.	.	.	.
12dn/J	.	.	.	.
12F#/L	.	.	.	.
12B/	.	.	.	.
12d/J	.	.	.	.
12Gn/L	4EE\	.	4gn/	.
12B/	.	.	.	.
12c#/J	.	.	.	.
12E/L	4GGn\)	.	4e/)	.
12B/	.	.	.	.
12c#/J	.	.	.	.
=14	=14	=14	=14	=14
12F#/L	2FF#\	.	2f#/	.
12B/	.	.	.	.
12dn/J	.	.	.	.
12F#/L	.	.	.	.
12B/	.	.	.	.
12d/J	.	.	.	.
12F#/L	2FFF#\ 2FF#\	.	2f#/	.
12A#/	.	.	.	.
12c#/J	.	.	.	.
12F#/L	.	.	.	.
12A#/	.	.	.	.
12c#/J	.	.	.	.
*v	*v	*	*	*
=15	=15	=15	=15
*	*	*^	*
[1BBB [1BB	.	4B/	12B\L	.
.	.	.	12dn\	.
.	.	.	12f#\J	.
.	.	4r	12B\L	.
.	.	.	12d\	.
.	.	.	12f#\J	.
.	.	4r	12B\L	.
.	.	.	12d#\	.
.	.	.	12f#\J	.
.	.	(4b/	12B\L	.
.	.	.	12d#\	.
.	.	.	12f#\J	.
=16	=16	=16	=16	=16
4BBB/] 4BB/]	.	2.ccn/	12B\L	.
.	.	.	12e\	.
.	.	.	12gn\J	.
!	!LO:DY:b	!	!	!
4EE/ 4E/	<	.	12B\L	.
.	(	.	12e\	.
.	(	.	12g\J	.
4GGn/ 4Gn/	[	.	12B\L	.
.	>	.	12e\	.
.	)	.	12g\J	.
4EE/ 4E/	)	4a#/	12B\L	.
.	]	.	12e\	.
.	.	.	12g\J	.
*	*	*v	*v	*
=17	=17	=17	=17
*k[f#c#g#d#]	*	*k[f#c#g#d#]	*k[f#c#g#d#]
*	*	*^	*
[1BBB [1BB	.	2.b/)	12B\L	.
.	.	.	12d#X\	.
.	.	.	12f#\J	.
.	.	.	12B\L	.
.	.	.	12d#\	.
.	.	.	12f#\J	.
.	.	.	12B\L	.
.	.	.	12d#\	.
.	.	.	12f#\J	.
.	.	(4b/	12B\L	.
.	.	.	12d#\	.
.	.	.	12f#\J	.
=18	=18	=18	=18	=18
4BBB/] 4BB/]	.	2.ccn/	12B\L	.
.	.	.	12e\	.
.	.	.	12gn\J	.
4EE/ 4E/	.	.	12B\L	.
.	.	.	12e\	.
.	.	.	12g\J	.
4GGn/ 4Gn/	.	.	12B\L	.
.	.	.	12e\	.
.	.	.	12g\J	.
4EE/ 4E/	.	4a#/	12B\L	.
.	.	.	12e\	.
.	.	.	12g\J	.
=19	=19	=19	=19	=19
2BBB/ 2BB/	.	2b/)	12B\L	.
.	.	.	12d#X\	.
.	.	.	12f#\J	.
.	.	.	12B\L	.
.	.	.	12d#\	.
.	.	.	12f#\J	.
2GGG#X/ 2GG#X/	.	2b/	12B\L	.
.	.	.	12dn\	.
.	.	.	12e#\J	.
.	.	.	12B\L	.
.	.	.	12d\	.
.	.	.	12e#\J	.
=20	=20	=20	=20	=20
2EEE#/ 2EE#/	.	(2b/	12B\L	.
.	.	.	12c#\	.
.	.	.	12g#X\J	.
.	.	.	12B\L	.
.	.	.	12c#\	.
.	.	.	12g#\J	.
2FFF#/ 2FF#/	.	2an/)	12A\L	.
.	.	.	12c#\	.
.	.	.	12f#\J	.
.	.	.	12A\L	.
.	.	.	12c#\	.
.	.	.	12f#\J	.
*	*	*v	*v	*
=21	=21	=21	=21
*^	*	*	*
12Gn/L	2BBB\ 2BB\	.	(2gn/	.
12B/	.	.	.	.
12dn/J	.	.	.	.
12G/L	.	.	.	.
12B/	.	.	.	.
12d/J	.	.	.	.
12F#/L	2BBB#\ 2BB#\	.	2f#/)	.
12A/	.	.	.	.
12d#/J	.	.	.	.
12F#/L	.	.	.	.
12A/	.	.	.	.
12d#/J	.	.	.	.
=22	=22	=22	=22	=22
12C#/L	2CC#\	.	2c#/	.
12F#/	.	.	.	.
12A/J	.	.	.	.
12C#/L	.	.	.	.
12F#/	.	.	.	.
12A/J	.	.	.	.
12C#/L	2CC#\	.	4c#/	.
12F#/	.	.	.	.
12G#/J	.	.	.	.
12C#/L	.	.	4c#/	.
12E#/	.	.	.	.
12G#/J	.	.	.	.
*v	*v	*	*	*
=23	=23	=23	=23
*	*	*^	*
1FFF# 1CC# 1FF#	.	4F#j/	12F#j\L	.
.	.	.	12Aj\	.
.	.	.	12c#j\J	.
.	.	4r	12A\L	.
.	.	.	12c#\	.
.	.	.	12f#\J	.
.	.	4r	12c#\L	.
.	.	.	12f#\	.
.	.	.	12a\J	.
.	.	8.cc#/L	12c#\L	.
.	.	.	12f#\	.
.	.	.	12a\J	.
.	.	16cc#/Jk	.	.
=24	=24	=24	=24	=24
1EE# 1C# 1E#	.	2.cc#/	12c#\L	.
.	.	.	12g#\	.
.	.	.	12b\J	.
.	.	.	12c#\L	.
.	.	.	12g#\	.
.	.	.	12b\J	.
.	.	.	12c#\L	.
.	.	.	12g#\	.
.	.	.	12b\J	.
.	.	8.cc#/L	12c#\L	.
.	.	.	12g#\	.
.	.	.	12b\J	.
.	.	16cc#/Jk	.	.
=25	=25	=25	=25	=25
(2FF#/ 2F#/	.	2cc#/	12c#\L	.
.	.	.	12f#\	.
.	.	.	12a\J	.
!	!	!	!LO:TX:b:t=cresc.	!
.	.	.	12c#\L	.
.	.	.	12f#\	.
.	.	.	12a\J	.
4DD#X/ 4D#X/	.	(4b#/	12B#\L	.
.	.	.	12f#\	.
.	.	.	12a\J	.
4CC#/) 4C#/	.	4cc#/)	12c#\L	.
.	.	.	12f#\	.
.	.	.	12a\J	.
=26	=26	=26	=26	=26
2.BBB#/ 2.GG#/ 2.BB#/	.	2.dd#/	12d#\L	.
.	.	.	12f#\	.
.	.	.	12g#\J	.
.	.	.	12d#\L	.
.	.	.	12f#\	.
.	.	.	12g#\J	.
.	.	.	12d#\L	.
.	.	.	12f#\	.
.	.	.	12g#\J	.
4BBB#/ 4GG#/ 4BB#/	.	4dd#/	12d#\L	.
.	.	.	12f#\	.
.	.	.	12g#\J	.
=27	=27	=27	=27	=27
(2CC#/ 2GG#/ 2C#/	.	(2ee/	12e\L	.
.	.	.	12g#\	.
!	!	!	!LO:TX:b:t=decresc.	!
.	.	.	12cc#\J	.
.	.	.	12e\L	.
.	.	.	12g#\	.
.	.	.	12cc#\J	.
4FFF#/ 4FF#/	.	4dd#/	12d#\L	.
.	.	.	12f#\	.
.	.	.	12a\J	.
4FFF##/) 4FF##/	.	4cc#/)	12c#\L	.
.	.	.	12e\	.
.	.	.	12a#\J	.
=28	=28	=28	=28	=28
1GGG# 1GG#	.	4ryy	12b#/L	p
.	.	.	12B#/	.
.	.	.	12d#/J	.
.	.	(4g#/	12g#\L	<
.	.	.	12B#\	(
.	.	.	12d#\J	(
.	.	4a/	12a\L	[
.	.	.	12B#\	>
.	.	.	12d#\J	)
.	.	4f#/	12f#\L)	)
.	.	.	12B#\	]
.	.	.	12d#\J	.
*	*	*v	*v	*
=29	=29	=29	=29
*^	*	*	*
4r	1GGG# 1GG#	.	12r	.
.	.	.	12B#/L	.
.	.	.	12d#/J	.
!LO:S:b	!	!	!	!
(4G#\	.	<	12G#j/L	.
.	.	(	12B#Xj/	.
.	.	(	12d#/J	.
4A\	.	[	12A/jL	.
.	.	>	12B#j/	.
.	.	)	12d#/J	.
4F#\)	.	)	12F#j/L	.
.	.	]	12B#j/	.
.	.	.	12d#/J	.
*v	*v	*	*	*
=30	=30	=30	=30
*	*	*^	*
1GGG# 1GG#	.	4ryy	12Ej/L	.
.	.	.	12e/	.
.	.	.	12g#/J	.
.	.	(4cc#/	12cc#\L	<
.	.	.	12e\	(
.	.	.	12g#\J	(
.	.	4ee/	12ee\L	(
.	.	.	.	[
.	.	.	12e\	.
.	.	.	12g#\J	>
.	.	4cc#/)	12cc#\L	)
.	.	.	12e\	)
.	.	.	12g#\J	)
.	.	.	.	]
*	*	*v	*v	*
=31	=31	=31	=31
*^	*	*	*
4ryy	1GGG# 1GG#	.	12rj	.
.	.	.	12Ej/L	.
.	.	.	12G#j/J	.
!LO:S:b	!	!	!	!
(4c#\	.	.	12c#j/L	<
.	.	.	12Ej/	(
.	.	.	12G#j/J	(
4e\	.	.	12ej/L	[
.	.	.	12Ej/	.
.	.	.	12G#j/J	.
4c#\)	.	.	12c#j/L)	>
.	.	.	12Ej/	)
.	.	.	12G#j/J	)
.	.	.	.	]
*v	*v	*	*	*
=32	=32	=32	=32
!	!	!LO:TX:b:t=legato	!
!	!	!LO:S:a	!
1GGG# 1GG#	.	(12D#j/L	.
.	.	12Aj/	.
.	.	12F#j/J	.
.	.	12B#j/L	.
.	.	12Aj/	.
.	.	12d#/J	.
.	.	12B#X/L	.
.	.	12f#/	.
.	.	12d#/J	.
.	.	12a/L	.
.	.	12f#/	.
.	.	12b#/J)	.
=33	=33	=33	=33
!	!	!LO:S:a	!
1GGG# 1GG#	.	(12Ej\L	.
.	.	12c#j/	.
.	.	12G#j/J	.
.	.	12e\L	.
.	.	12c#\	.
.	.	12g#\J	.
.	.	12e\L	.
.	.	12cc#\	.
.	.	12g#\J	.
.	.	12ee\L	.
.	.	12cc#\	.
.	.	12g#\J)	.
=34	=34	=34	=34
!	!	!LO:S:a	!
1GGG# 1GG#	.	(12c#/L	.
.	.	12f##/	.
.	.	12e/J	.
.	.	12a#\L	.
.	.	12f##\	.
.	.	12cc#\J	.
.	.	12a#\L	.
.	.	12ee\	.
.	.	12cc#\J	.
.	.	12ff##\L	.
.	.	12ee\	.
.	.	12aa#\J)	.
=35	=35	=35	=35
[1GGG# [1GG#	.	12f#X\L	.
.	.	12b#\	.
.	.	12an\J	.
.	.	12dd#X\L	.
.	.	12b#\	.
.	.	12ff#\J	.
.	.	12dd#\L	.
.	.	12aan\	.
.	.	12ff#\J	.
.	.	12bb#\L	.
.	.	12aa\	.
.	.	12ddd#X\J	.
=36	=36	=36	=36
1GGG#_ 1GG#_	.	(12bb#\L	.
.	.	12ff#\	.
.	.	12aa\J	.
.	.	12dd#\L	.
.	.	12ff#\	.
.	.	12b#\J	.
.	.	12dd#\L	.
.	.	12a\	.
.	.	12b#\J	.
.	.	12f#/L	.
.	.	12a/	.
.	.	12d#/J	.
=37	=37	=37	=37
1GGG#] 1GG#]	.	12f#/L	.
.	.	12B#/	.
.	.	12d#/J	.
.	.	12A/L	.
.	.	12B#/	.
.	.	12F#j/J)	.
*	*	*^	*
.	.	(12Aj/L	12ryy	.
.	.	12D#j/	6D#j\	.
.	.	12F#j/J	.	.
.	.	12C#j/L	4C#j\	.
.	.	12F#j/	.	.
.	.	12Aj/J)	.	.
*	*	*v	*v	*
=38	=38	=38	=38
*^	*	*	*
2BB#\	1GGG# 1GG#	.	12BB#j/L	.
.	.	.	12F#j/	.
.	.	.	12G#j/J	.
.	.	.	12Aj/L	.
.	.	.	12G#j/	.
.	.	.	12F#j/J	.
(4D#\	.	.	12D#j/L	.
.	.	.	12F#j/	.
.	.	.	12Aj/J	.
4C#\)	.	.	12C#j/L	.
.	.	.	12F#j/	.
.	.	.	12Aj/J	.
=39	=39	=39	=39	=139
2BB#\	1GGG# 1GG#	.	12BB#j/L	.
.	.	.	12F#j/	.
.	.	.	12G#j/J	.
.	.	.	12Aj/L	.
.	.	.	12G#j/	.
.	.	.	12F#j/J	.
(4Dn\	.	.	12Dnj/L	.
.	.	.	12F#j/	.
.	.	.	12Aj/J	.
4C#\)	.	.	12C#j/L	.
.	.	.	12F#j/	.
.	.	.	12Aj/J	.
=40	=40	=40	=40	=40
!	!	!	!LO:TX:t=decresc.	!
2BB#\	(2GGG# 2GG#\	.	12BB#j/L	.
.	.	.	12F#j/	.
.	.	.	12G#j/J	.
.	.	.	12Aj/L	.
.	.	.	12G#j/	.
.	.	.	12F#j/J	.
2ryy	2AAA\ 2AA\	.	12C#j/L	.
.	.	.	12Ej/	.
.	.	.	12c#j/J	.
.	.	.	12C#j/L	.
.	.	.	12Ej/	.
.	.	.	12c#j/J	.
=41	=41	=41	=41	=41
12D#/L	2FFF#\ 2FF#\	.	1ryy	.
12A/	.	.	.	.
12c#/J	.	.	.	.
12D#/L	.	.	.	.
12A/	.	.	.	.
12c#/J	.	.	.	.
12D#/L	2GGG#\) 2GG#\	.	.	.
12G#/	.	.	.	.
12B#/J	.	.	.	.
12D#/L	.	.	.	.
12F#/	.	.	.	.
12B#/J	.	.	.	.
=42	=42	=42	=42	=42
*	*	*	*^	*
12E/L	1CC# 1GG# 1C#	pp	2.ryy	4ryy	.
12G#/	.	.	.	.	.
12c#/J	.	.	.	.	.
2.ryy	.	.	.	12G#j\L	.
.	.	.	.	12c#\	.
.	.	.	.	12e\J	.
.	.	.	.	12G#\L	.
.	.	.	.	12c#\	.
.	.	.	.	12e\J	.
!	!	!	!	!	!LO:DY:a
.	.	.	8.g#/L	12G#\L	pp
.	.	.	.	12c#\	.
.	.	.	.	12e\J	.
.	.	.	16g#/Jk	.	.
*v	*v	*	*	*	*
=43	=43	=43	=43	=43
1BBB# 1GG# 1BB#	.	2.g#/	12G#\L	.
.	.	.	12d#\	.
.	.	.	12f#\J	.
.	.	.	12G#\L	.
.	.	.	12d#\	.
.	.	.	12f#\J	.
.	.	.	12G#\L	.
.	.	.	12d#\	.
.	.	.	12f#\J	.
.	.	8.g#/L	12G#\L	.
.	.	.	12d#\	.
.	.	.	12f#\J	.
.	.	16g#/Jk	.	.
=44	=44	=44	=44	=44
(2CC#/ 2C#/	.	(2g#/	12G#\L	.
.	.	.	12c#\	.
.	.	.	12e\J	.
.	.	.	12G#\L	.
.	.	.	12c#\	.
.	.	.	12e\J	.
2FFF#/ 2FF#/)	.	2a/	12A\L	.
.	.	.	12c#\	.
.	.	.	12f#\J	.
.	.	.	12A\L	.
.	.	.	12c#\	.
.	.	.	12f#\J	.
=45	=45	=45	=45	=45
2BBB/ 2BB/	.	2g#/	12G#\L	.
.	.	.	12B\	.
.	.	.	12e\J	.
.	.	.	12G#\L	.
.	.	.	12B\	.
.	.	.	12e\J	.
2BBB/ 2BB/	.	4f#/	12A\L	.
.	.	.	12B\	.
.	.	.	12d#\J	.
.	.	4b/	12A\L	.
.	.	.	12B\	.
.	.	.	12d#\J	.
=46	=46	=46	=46	=46
1EE 1E	.	4e/)	12G#\L	.
.	.	.	12B\	.
.	.	.	12e\J	.
.	.	4r	12B\L	.
.	.	.	12e\	.
.	.	.	12g#\J	.
.	.	4r	12B\L	.
.	.	.	12e\	.
.	.	.	12g#\J	.
.	.	8.b/L	12B\L	.
.	.	.	12e\	.
.	.	.	12g#\J	.
.	.	16b/Jk	.	.
=47	=47	=47	=47	=47
1DD# 1D#	.	2.b/	12B\L	.
.	.	.	12f#\	.
.	.	.	12a\J	.
.	.	.	12B\L	.
.	.	.	12f#\	.
.	.	.	12a\J	.
.	.	.	12B\L	.
.	.	.	12f#\	.
.	.	.	12a\J	.
.	.	8.b/L	12B\L	.
.	.	.	12f#\	.
.	.	.	12a\J	.
.	.	16b/Jk	.	.
=48	=48	=48	=48	=48
(2EE/ 2E/	.	(2b/	12A\L	.
.	.	.	12e\	.
!	!	!	!LO:TX:t=cresc.	!
.	.	.	12g#\J	.
.	.	.	12B\L	.
.	.	.	12e\	.
.	.	.	12g#\J	.
4DD#/ 4D#/	.	4b#/	12B#\L	.
.	.	.	12f#\	.
.	.	.	12g#\J	.
4CC#/) 4C#/	.	4cc#/)	12c#\L	.
.	.	.	12e\	.
.	.	.	12g#\J	.
=49	=49	=49	=49	=49
(2BBB#/ 2GG#/ 2BB#/	.	(2dd#/	12d#\L	p
.	.	.	12f#\	.
.	.	.	12g#\J	.
.	.	.	12d#\L	.
.	.	.	12f#\	.
.	.	.	12g#\J	.
2CC#/ 2GG#/ 2C#/)	.	2ee/	12e\L	.
.	.	.	12g#\	.
.	.	.	12cc#\J	.
.	.	.	12e\L	.
.	.	.	12g#\	.
.	.	.	12cc#\J	.
=50	=50	=50	=50	=50
(2FFF#/ 2FF#/	.	2ddn/	12dn\L	.
.	.	.	12f#\	.
.	.	.	12a\J	.
.	.	.	12d\L	.
.	.	.	12f#\	.
.	.	.	12a\J	.
2GGG#/) 2GG#/	.	2b#/)	12B#\L	.
.	.	.	12f#\	.
.	.	.	12g#\J	.
.	.	.	12B#\L	.
.	.	.	12f#\	.
.	.	.	12g#\J	.
=51	=51	=51	=51	=51
[1CC# [1C#	.	2.cc#/	12c#\L	.
.	.	.	12e\	.
.	.	.	12g#\J	.
.	.	.	12c#\L	.
.	.	.	12e\	.
.	.	.	12g#\J	.
.	.	.	12c#\L	.
.	.	.	12e#\	.
.	.	.	12g#\J	.
.	.	(4cc#/	12c#\L	.
.	.	.	12e#\	.
.	.	.	12g#\J	.
=52	=52	=52	=52	=52
4CC#/] 4C#/]	.	2.ddn/	12c#\L	.
.	.	.	12f#\	.
.	.	.	12a\J	.
!!LO:DY:b
(4FF#/ 4F#/	<	.	12c#\L	.
.	(	.	12f#\	.
.	(	.	12a\J	.
4AA/ 4A/	[	.	12c#\L	.
.	>	.	12f#\	.
.	)	.	12a\J	.
4FF#/) 4F#/	)	4b#/)	12c#\L	.
.	]	.	12f#\	.
.	.	.	12a\J	.
=53	=53	=53	=53	=53
[1CC# [1C#	.	2.cc#/	12c#\L	.
.	.	.	12e#\	.
.	.	.	12g#\J	.
.	.	.	12c#\L	.
.	.	.	12e#\	.
.	.	.	12g#\J	.
.	.	.	12c#\L	.
.	.	.	12e#\	.
.	.	.	12g#\J	.
.	.	(4cc#/	12c#\L	.
.	.	.	12e#\	.
.	.	.	12g#\J	.
=54	=54	=54	=54	=54
4CC#/] 4C#/]	.	2.ddn/	12c#\L	.
.	.	.	12f#\	.
.	.	.	12a\J	.
(4FF#/ 4F#/	<	.	12c#\L	.
.	(	.	12f#\	.
.	(	.	12a\J	.
4AA/ 4A/	[	.	12c#\L	.
.	>	.	12f#\	.
.	)	.	12a\J	.
4FF#/) 4F#/	)	4b#/)	12c#\L	.
.	]	.	12f#\	.
.	.	.	12a\J	.
=55	=55	=55	=55	=55
2CC#/ 2C#/	.	2cc#/	12c#\L	.
.	.	.	12e#\	.
.	.	.	12g#\J	.
.	.	.	12c#\L	.
.	.	.	12e#\	.
.	.	.	12g#\J	.
2FFF#/ 2FF#/	.	2cc#/	12c#\L	.
.	.	.	12f#\	.
.	.	.	12a\J	.
.	.	.	12c#\L	.
.	.	.	12f#\	.
.	.	.	12a\J	.
=56	=56	=56	=56	=56
2.DD#/ 2.D#/	.	2.b/	12B\L	.
.	.	.	12f#\	.
.	.	.	12a\J	.
.	.	.	12B\L	.
.	.	.	12f#\	.
.	.	.	12a\J	.
.	.	.	12B\L	.
.	.	.	12f#\	.
.	.	.	12a\J	.
4EE/ 4E/	.	4b/	12B\L	.
.	.	.	12e\	.
.	.	.	12g#\J	.
=57	=57	=57	=57	=57
(4CC#/ 4C#/	.	4a/	12A\L	.
.	.	.	12e\	.
.	.	.	12g#\J	.
4DD#/ 4D#/	.	4a/	12A\L	.
.	.	.	12d#\	.
.	.	.	12f#\J	.
4BBB#/ 4BB#/	.	4g#/	12G#\L	.
.	.	.	12d#\	.
.	.	.	12f#\J	.
4CC#/) 4C#/	.	4g#/	12G#\L	.
.	.	.	12c#\	.
.	.	.	12e\J	.
=58	=58	=58	=58	=58
!	!	!	!	!LO:DY:a
(2AAA/ 2AA/	.	(2f#/	12F#\L	<
.	.	.	12c#\	(
.	.	.	12d#\J	(
.	.	.	12F#\L	(
.	.	.	12c#\	(
.	.	.	12d#\J	(
4GGG#/ 4GG#/	.	4g#/	12G#\L	(
.	.	.	12c#\	(
.	.	.	12d#\J	(
4FFF#/) 4FF#/	.	4a/)	12A\L	[
.	.	.	12c#\	.
.	.	.	12d#\J	.
=59	=59	=59	=59	=59
2GGG#/ 2GG#/	.	2g#/	12G#\L	p
.	.	.	12c#\	.
.	.	.	12e\J	.
.	.	.	12G#\L	.
.	.	.	12c#\	.
.	.	.	12e\J	.
2GGG#/ 2GG#/	.	2g#/	12F#\L	.
.	.	.	12B#\	.
.	.	.	12d#\J	.
.	.	.	12F#\L	.
.	.	.	12B#\	.
.	.	.	12d#\J	.
*	*	*v	*v	*
=60	=60	=60	=60
*^	*	*	*
*	*^	*	*	*
12E/L	2.GG#/	1CC#	.	4c#/	pp
12G#/	.	.	.	.	.
12c#/J	.	.	.	.	.
2ryy	.	.	.	12G#j/L	.
.	.	.	.	12c#/	.
.	.	.	.	12e/J	.
.	.	.	.	12G#/L	.
.	.	.	.	12c#/	.
.	.	.	.	12e/J	.
4ryy	8.GG#/L	.	.	12G#/L	.
.	.	.	.	12c#/	.
.	.	.	.	12e/J	.
.	16GG#/Jk	.	.	.	.
*	*v	*v	*	*	*
=61	=61	=61	=61	=61
2.GG#/	1BBB#	.	12G#/L	.
.	.	.	12d#/	.
.	.	.	12f#/J	.
.	.	.	12G#/L	.
.	.	.	12d#/	.
.	.	.	12f#/J	.
.	.	.	12G#/L	.
.	.	.	12d#/	.
.	.	.	12f#/J	.
8.GG#/L	.	.	12G#/L	.
.	.	.	12d#/	.
.	.	.	12f#/J	.
16GG#/Jk	.	.	.	.
=62	=62	=62	=62	=62
!	!	!	!LO:S:a	!
2.GG#/	1CC#	.	(12G#/L	<
.	.	.	12e/	(
.	.	.	12c#/J	(
.	.	.	12g#/L	(
.	.	.	12e/	(
.	.	.	12cc#/J	(
.	.	.	12g#\L	(
.	.	.	12ee\	(
.	.	.	12cc#\J	(
8.GG#/L	.	.	12gg#\L	(
.	.	.	12ee\	(
.	.	.	12cc#\J)	(
16GG#/Jk	.	.	.	[
=63	=63	=63	=63	=63
*	*^	*	*	*
2.GG#/	2.ryy	1GGG#	.	12b#\L	>
.	.	.	.	12dd#\	)
.	.	.	.	12a\J	)
.	.	.	.	12b#/L	)
.	.	.	.	12f#/	)
.	.	.	.	12a/J	)
.	.	.	.	12d#/L	)
.	.	.	.	12f#/	)
.	.	.	.	12A/J	]
12A/L	8.GG#\L	.	.	4B#/	.
12G#/	.	.	.	.	.
12F#/J	.	.	.	.	.
.	16GG#\Jk	.	.	.	.
*	*v	*v	*	*	*
=64	=64	=64	=64	=64
2.GG#/	1CC#	.	12E/j 12c#/Lj	.
.	.	.	12e/	<
.	.	.	12c#/J	(
.	.	.	12g#/L	(
.	.	.	12e/	(
.	.	.	12cc#/J	(
.	.	.	12g#\L	(
.	.	.	12ee\	(
.	.	.	12cc#\J	(
8.GG#/L	.	.	12gg#\L	(
.	.	.	12ee\	(
.	.	.	12cc#\J	(
16GG#/Jk	.	.	.	[
=65	=65	=65	=65	=65
*^	*	*	*	*
2.ryy	2.GG#/	1GGG#	.	12b#\L	>
.	.	.	.	12dd#\	)
.	.	.	.	12a\J	)
.	.	.	.	12b#/L	)
.	.	.	.	12f#/	)
.	.	.	.	12a/J	)
.	.	.	.	12d#/L	)
.	.	.	.	12f#/	)
.	.	.	.	12A/J	]
12A/L	8.GG#\L	.	.	4B#/	.
12G#/	.	.	.	.	.
12F#/J	.	.	.	.	.
.	16GG#\Jk	.	.	.	.
*v	*v	*	*	*	*
=66	=66	=66	=66	=66
*^	*	*	*	*
!	!	!LO:TX:a:t=decresc.	!	!	!
(12E/ 12c#/L	2GG#\	[1CC#	.	1ryy	.
12G#/	.	.	.	.	.
12c#/J	.	.	.	.	.
12e/L	.	.	.	.	.
12c#/	.	.	.	.	.
12G#/J)	.	.	.	.	.
12r	2C#\	.	.	.	.
(12E/L	.	.	.	.	.
12G#/J	.	.	.	.	.
12c#/L	.	.	.	.	.
12G#/	.	.	.	.	.
12E/J)	.	.	.	.	.
*v	*v	*	*	*	*
=67	=67	=67	=67	=67
12r	2CC#]\ 2GG#\	.	1ryy	.
!LO:S:a:	!	!	!	!
(12C#/L	.	.	.	.
12E/J	.	.	.	.
12G#/L	.	.	.	.
12E/	.	.	.	.
12C#/J)	.	.	.	.
!	!LO:S:a	!	!	!
2r	(12GG#\L	.	.	.
.	12C#\	.	.	.
.	12GG#\J	.	.	.
.	12EE\L	.	.	.
.	12GG#\	.	.	.
.	12EE\J)	.	.	.
=68	=68	=68	=68	=68
2r	2CC#\	pp	1ryy	.
2C#/ 2E/ 2G#/ 2c#/	2CC#\ 2GG#\	.	.	pp
*v	*v	*	*	*
=69	=69	=69	=69
1CC#; 1GG#; 1C#; 1E; 1G#; 1c#;	.	1ryy	.
!!LO:TX:b:rj:t=attacca
==	==	==	==
*-	*-	*-	*-
!!!ENC: Craig Stuart Sapp
!!!END: 2004/06/30/
!!!ONB: Basic proof-reading done
